tools/download-figma-icons/icons/outlined-large/enercity-portal.svg

<svg width="64" height="64" viewBox="0 0 64 64" fill="none" xmlns="http://www.w3.org/2000/svg">
<path fill-rule="evenodd" clip-rule="evenodd" d="M3 11.412V17H61V11.412C61 8.979 59.021 7 56.588 7H7.412C4.979 7 3 8.979 3 11.412ZM56.588 56C59.021 56 61 54.021 61 51.588V20H3V50.588C3 53.024 5.036 56 7.412 56H56.588ZM7.412 4H56.588C60.675 4 64 7.325 64 11.412V17V20V51.588C64 55.675 60.675 59 56.588 59H7.412C3.17 59 0 54.559 0 50.588V20V17V11.412C0 7.325 3.325 4 7.412 4ZM6 12C6 10.896 6.896 10 8 10C9.104 10 10 10.896 10 12C10 13.104 9.104 14 8 14C6.896 14 6 13.104 6 12ZM14 10C12.896 10 12 10.896 12 12C12 13.104 12.896 14 14 14C15.104 14 16 13.104 16 12C16 10.896 15.104 10 14 10ZM18 12C18 10.896 18.896 10 20 10C21.104 10 22 10.896 22 12C22 13.104 21.104 14 20 14C18.896 14 18 13.104 18 12ZM32.4473 30.7998C29.2973 30.7998 27.0223 32.9718 26.4383 35.9998H37.9893C37.7563 32.6288 35.6553 30.7998 32.4473 30.7998ZM43.5494 38C43.5494 31.439 39.8564 26 32.2344 26C25.5504 26 20.4504 31.103 20.4504 38C20.4504 44.953 25.5504 50 32.2934 50C37.3354 50 40.5014 48.206 43.2564 44.897L39.0934 41.645C37.8044 43.775 34.9314 45.121 32.2934 45.121C29.3614 45.121 26.7234 42.935 26.2544 40.131H43.4324C43.4914 39.514 43.5494 38.448 43.5494 38ZM45.5624 46.817C42.0014 51.093 37.9084 53 32.2934 53C23.8314 53 17.4504 46.552 17.4504 38C17.4504 29.448 23.8054 23 32.2344 23C40.7974 23 46.5494 29.028 46.5494 38C46.5494 38.595 46.4814 39.766 46.4194 40.415C46.3344 41.315 45.8554 42.092 45.1644 42.581C45.7694 43.08 46.1564 43.796 46.2404 44.578C46.3264 45.386 46.0824 46.193 45.5624 46.817Z" fill="black"/>
</svg>

<svg xmlns="http://www.w3.org/2000/svg" width="64" height="64" fill="none" viewBox="0 0 64 64"><path fill="currentColor" fill-rule="evenodd" d="M3 11.412V17h58v-5.588A4.417 4.417 0 0 0 56.588 7H7.412A4.417 4.417 0 0 0 3 11.412M56.588 56A4.417 4.417 0 0 0 61 51.588V20H3v30.588C3 53.024 5.036 56 7.412 56zM7.412 4h49.176C60.675 4 64 7.325 64 11.412v40.176C64 55.675 60.675 59 56.588 59H7.412C3.17 59 0 54.559 0 50.588V11.412C0 7.325 3.325 4 7.412 4M6 12a2 2 0 1 1 4.001.001A2 2 0 0 1 6 12m8-2a2 2 0 1 0 .001 4.001A2 2 0 0 0 14 10m4 2a2 2 0 1 1 4.001.001A2 2 0 0 1 18 12m14.447 18.8c-3.15 0-5.425 2.172-6.009 5.2H37.99c-.233-3.371-2.334-5.2-5.542-5.2M43.55 38c0-6.561-3.693-12-11.315-12-6.684 0-11.784 5.103-11.784 12 0 6.953 5.1 12 11.843 12 5.042 0 8.208-1.794 10.963-5.103l-4.163-3.252c-1.289 2.13-4.162 3.476-6.8 3.476-2.932 0-5.57-2.186-6.039-4.99h17.178A31 31 0 0 0 43.55 38m2.013 8.817C42.002 51.093 37.908 53 32.293 53c-8.462 0-14.843-6.448-14.843-15s6.355-15 14.784-15c8.563 0 14.315 6.028 14.315 15 0 .595-.068 1.766-.13 2.415a3 3 0 0 1-1.255 2.166 3 3 0 0 1 .398 4.236" clip-rule="evenodd"/></svg>
